X: 81
T: Bonny Laddy
%R: reel
B: "The Compleat Country Dancing-Master" printed by John Walsh, London ca. 1740
S: 6: CCDM2 http://imslp.org/wiki/The_Compleat_Country_Dancing-Master_(Various) V.2 (51)
Z: 2013 John Chambers <jc:trillian.mit.edu>
M: C|
L: 1/8
K: A
% - - - - - - - - - - - - - - - - - - - - - - - - -
|: a>AAA AAAA | aAAA f2e2 | g>BBB B/B/B BB | gBBB Tf2e2 :|\
|: d>efg efge | d>efd Tf2e2 | defg e>fge | a>A A/A/A Tf2e2 :|
% - - - - - - - - - - - - - - - - - - - - - - - - -
%%center Each strain twice
% - - - - - - - - Dance description - - - - - - - -
%%begintext align
%% The 1st Man cast off round the 2d Cu. the Wo. following
%% .| Then the 1st Wo. do the same back again the
%% Man following :| Cross over and figure thro the 3d
%% Cu. .| The 1st and 2d Cu. take all four hands and turn
%% quite round first and then single :|
%%endtext
%%sep 1 8 500

%%sep 1 1 500
%%sep 1 1 500
